public/assets/logos/banfield-white.svg

<svg fill="none" height="30" viewBox="0 0 30 30" width="30" xmlns="http://www.w3.org/2000/svg"><g fill="#fff"><path d="m13.6586 9.8963c.1114-.75735.4036-1.45996.168-2.18994-.1406-.43433-.3305-.54748-.6867-.18249-1.8756 2.00744-3.68916 4.01493-4.34847 6.85453-.5205 2.2447-3.13033 4.159-5.38403 4.3214-.36527.0256-.40545-.146-.40545-.4179 0-2.8542 0-5.7078 0-8.5608 0-.5712.37623-.68618.86203-.68253 1.4282 0 2.85639-.0219 4.28276.01095.77436.01825 1.10858-.26096 1.08484-1.06029-.03835-1.33404.01096-2.67172-.01826-4.01488-.01462-.69713.24472-.98182.95878-.97635 3.2193.01947 6.4397.01947 9.6614 0 .7305 0 .9533.31024.9387.99095-.0274 1.27746-.011 2.55492 0 3.83239 0 1.09496.1132 1.21358 1.1853 1.21723 1.3369 0 2.6756.0292 4.0179 0 .7306-.0219 1.0337.219 1.0264.98913-.0292 3.1632-.0292 6.3204 0 9.4715 0 .75-.2666 1.0402-1.0099 1.0238-1.3972-.0311-2.7962.0164-4.2006-.0183-.747-.0182-1.041.2774-1.0264 1.0183.0274 1.4271-.0201 2.8542.0164 4.2795.0201.7738-.2538 1.1132-1.0538 1.095-1.335-.0347-2.6719-.0128-4.0088 0-.3981 0-.7305 0-.6556-.5676.2063-1.6041-.2448-3.1297-.6045-4.6645-.2364-.9482-.1602-1.9473.2173-2.8488.5661-1.3796 1.5469-2.1297 3.0281-2.2483.393-.0257.784-.0763 1.1706-.1515 1.9706-.4234 2.1916-.6752 2.4729-2.6662 0-.0292 0-.0602 0-.0894.3141-1.8359.2977-1.8597-1.5798-1.9874-.4542-.0401-.9104-.0529-1.3661-.0383-.3313.0271-.664-.0301-.9671-.1664-.3031-.1362-.5667-.3471-.7661-.6129-.5735-.7081-1.0702-.8157-3.0098-.9599z"/><path d="m6.04109 20.5128h-2.37424c-.18263 0-.40544-.0219-.46754-.2062-.06209-.1843.13515-.3212.27395-.4307.75338-.5736 1.65642-.9176 2.6007-.9909.63374-.0657 1.27844-.0913 1.90488-.1716.94056-.1204 1.52316-.7044 1.68022-1.6424.18264-1.0549.09863-2.1188.11689-3.1791 0-.3413.02009-.9909.36525-.8687.4073.146 1.105-.3376 1.2675.4763.0877.4435.431.5475.8419.4435.9954-.2482 1.7168.4654 2.5386.7738.5388.2025.4128 1.522-.2209 1.7866-1.5141.6333-1.3789 1.7939-1.178 3.0404.2995 1.8815.3013 3.7502-.3507 5.5697-.61 1.7027-1.4501 2.1461-3.19425 1.7574-.5479-.1204-.61913-.4945-.6173-.9581 0-1.4599-.01826-2.9199.01096-4.3707.01461-.73-.24656-1.0749-1.00814-1.0384-.73053.0383-1.46107.0109-2.18978.0091z"/></g></svg>

<svg width="30" height="30" viewBox="0 0 30 30" fill="none" xmlns="http://www.w3.org/2000/svg">
<path d="M13.6586 9.8963C13.77 9.13895 14.0622 8.43634 13.8266 7.70636C13.686 7.27203 13.4961 7.15888 13.1399 7.52387C11.2643 9.53131 9.45074 11.5388 8.79143 14.3784C8.27093 16.6231 5.6611 18.5374 3.4074 18.6998C3.04213 18.7254 3.00195 18.5538 3.00195 18.2819C3.00195 15.4277 3.00195 12.5741 3.00195 9.7211C3.00195 9.1499 3.37818 9.03492 3.86398 9.03857C5.29218 9.03857 6.72037 9.01667 8.14674 9.04952C8.9211 9.06777 9.25532 8.78856 9.23158 7.98923C9.19323 6.65519 9.24254 5.31751 9.21332 3.97435C9.1987 3.27722 9.45804 2.99253 10.1721 2.998C13.3914 3.01747 16.6118 3.01747 19.8335 2.998C20.564 2.998 20.7868 3.30824 20.7722 3.98895C20.7448 5.26641 20.7612 6.54387 20.7722 7.82134C20.7722 8.9163 20.8854 9.03492 21.9575 9.03857C23.2944 9.03857 24.6331 9.06777 25.9754 9.03857C26.706 9.01667 27.0091 9.25757 27.0018 10.0277C26.9726 13.1909 26.9726 16.3481 27.0018 19.4992C27.0018 20.2492 26.7352 20.5394 25.9919 20.523C24.5947 20.4919 23.1957 20.5394 21.7913 20.5047C21.0443 20.4865 20.7503 20.7821 20.7649 21.523C20.7923 22.9501 20.7448 24.3772 20.7813 25.8025C20.8014 26.5763 20.5275 26.9157 19.7275 26.8975C18.3925 26.8628 17.0556 26.8847 15.7187 26.8975C15.3206 26.8975 14.9882 26.8975 15.0631 26.3299C15.2694 24.7258 14.8183 23.2002 14.4586 21.6654C14.2222 20.7172 14.2984 19.7181 14.6759 18.8166C15.242 17.437 16.2228 16.6869 17.704 16.5683C18.097 16.5426 18.488 16.492 18.8746 16.4168C20.8452 15.9934 21.0662 15.7416 21.3475 13.7506C21.3475 13.7214 21.3475 13.6904 21.3475 13.6612C21.6616 11.8253 21.6452 11.8015 19.7677 11.6738C19.3135 11.6337 18.8573 11.6209 18.4016 11.6355C18.0703 11.6626 17.7376 11.6054 17.4345 11.4691C17.1314 11.3329 16.8678 11.122 16.6684 10.8562C16.0949 10.1481 15.5982 10.0405 13.6586 9.8963Z" fill="white"/>
<path d="M6.04109 20.5128H3.66685C3.48422 20.5128 3.26141 20.4909 3.19931 20.3066C3.13722 20.1223 3.33446 19.9854 3.47326 19.8759C4.22664 19.3023 5.12968 18.9583 6.07396 18.885C6.7077 18.8193 7.3524 18.7937 7.97884 18.7134C8.9194 18.593 9.502 18.009 9.65906 17.071C9.8417 16.0161 9.75769 14.9522 9.77595 13.8919C9.77595 13.5506 9.79604 12.901 10.1412 13.0232C10.5485 13.1692 11.2462 12.6856 11.4087 13.4995C11.4964 13.943 11.8397 14.047 12.2506 13.943C13.246 13.6948 13.9674 14.4084 14.7892 14.7168C15.328 14.9193 15.202 16.2388 14.5683 16.5034C13.0542 17.1367 13.1894 18.2973 13.3903 19.5438C13.6898 21.4253 13.6916 23.294 13.0396 25.1135C12.4296 26.8162 11.5895 27.2596 9.84535 26.8709C9.29745 26.7505 9.22622 26.3764 9.22805 25.9128C9.22805 24.4529 9.20979 22.9929 9.23901 21.5421C9.25362 20.8121 8.99245 20.4672 8.23087 20.5037C7.50034 20.542 6.7698 20.5146 6.04109 20.5128Z" fill="white"/>
</svg>
